boxicons/svg/regular/bx-arrow-from-top.svg

<svg xmlns="http://www.w3.org/2000/svg" width="24" height="24" viewBox="0 0 24 24"><path d="M6 4h12v2H6zm6 16.414 6.707-6.707-1.414-1.414L13 16.586V8h-2v8.586l-4.293-4.293-1.414 1.414z"/></svg>

<svg xmlns="http://www.w3.org/2000/svg" width="24" height="24" viewBox="0 0 24 24"><path d="M6 4H18V6H6zM12 20.414L18.707 13.707 17.293 12.293 13 16.586 13 8 11 8 11 16.586 6.707 12.293 5.293 13.707z"/></svg>
